src/components/ProductFeature/images/icons/open-source.svg

<svg viewBox="0 0 100 100" fill="none" xmlns="http://www.w3.org/2000/svg">
<path d="M50 1.59058C22.4313 1.59058 0 24.0218 0 51.5906C0 72.1593 12.8937 90.8906 32.075 98.1968C32.875 98.5156 33.775 98.4656 34.55 98.0906C35.325 97.7093 35.9125 97.0343 36.1688 96.2093L45.5438 66.2718C45.9875 64.8531 45.375 63.3156 44.075 62.6031C40.0188 60.3656 37.5 56.1468 37.5 51.5906C37.5 44.6968 43.1062 39.0906 50 39.0906C56.8938 39.0906 62.5 44.6968 62.5 51.5906C62.5 56.1468 59.9812 60.3656 55.925 62.6093C54.625 63.3218 54.0063 64.8593 54.4563 66.2781L63.8313 96.2156C64.0875 97.0406 64.675 97.7156 65.45 98.0968C65.8813 98.3031 66.35 98.4093 66.8125 98.4093C67.1875 98.4093 67.5688 98.3406 67.925 98.2031C87.1125 90.8906 100 72.1593 100 51.5906C100 24.0218 77.5687 1.59058 50 1.59058Z" fill="#A970DC"/>
</svg>

<svg fill="none" viewBox="0 0 100 100"><path fill="#A970DC" d="M50 1.59c-27.569 0-50 22.432-50 50 0 20.57 12.894 39.3 32.075 46.607.8.319 1.7.269 2.475-.106a3.136 3.136 0 001.619-1.882l9.375-29.937a3.12 3.12 0 00-1.469-3.669c-4.056-2.237-6.575-6.456-6.575-11.012 0-6.894 5.606-12.5 12.5-12.5s12.5 5.606 12.5 12.5c0 4.556-2.519 8.775-6.575 11.018a3.112 3.112 0 00-1.469 3.67l9.375 29.937c.257.825.844 1.5 1.619 1.88a3.104 3.104 0 002.475.106C87.113 90.892 100 72.16 100 51.592c0-27.57-22.431-50-50-50z"/></svg>
